img/manaSymbols/purpleb.svg

﻿<?xml version="1.0" encoding="utf-8"?>
<svg width="600" height="600" viewBox="0 0 600 600" version="1.1" xmlns="http://www.w3.org/2000/svg" xml:space="preserve" style="fill-rule: evenodd; clip-rule: evenodd; stroke-linejoin: round; stroke-miterlimit: 2;" preserveAspectRatio="xMidYMid meet" zoomAndPan="magnify" contentScriptType="application/ecmascript" contentStyleType="text/css">
  <circle cx="300" cy="300" r="300" style="fill: rgb(171, 139, 215);" />
  <g transform="matrix(1,0,0,1,-156.29,92.5)">
    <path d="M739.8 189.6c54.3 54.3 87.9 129.3 87.9 212.2 0 165.7-134.3 300-300 300-82.8 0-157.8-33.6-212.1-87.9" style="fill: rgb(203, 194, 191); fill-rule: nonzero;" transform="matrix(1,0,0,1,-71.43,-194.28)" />
    <path d="M765.4 497.7c0 16.2-5.9 27.3-17.7 33.2-3.4 1.7-14.2 4.1-32.4 7-11.8 2-17.7 6.5-17.7 13.6v29.8c0 1.3.4 5.1 1.1 11.4l1.1 11.8c0 3.7-.9 9.7-2.6 18.1-4.7 1-10.1 2.1-16.2 3.3-2-7.4-2.9-12.4-2.9-15.1 0-1.2.3-3.1.9-5.5.6-2.4.9-4.3.9-5.5 0-1.7-1.5-6.5-4.6-14.4h-5.7c-.8 1.2-1 2.8-.8 4.8 1 4.2 1.4 7.7 1.1 10.7-4.2 2.9-9.9 6.9-17.3 11.8-1.7-.5-2.3-.7-1.8-.7v-26.1c-.5-1.2-1.7-1.7-3.7-1.5h-4.4l-4.4 34.6c-3.4.2-7.6.2-12.5 0-1.7-8.1-4.8-20.1-9.2-36.1h-3c-2.7 8.6-4.2 13.3-4.4 14 0 1 .3 2.9.9 5.7.6 2.8.9 4.7.9 5.7 0 .7-.3 2.6-.7 5.5l-1.1 8.9c-.5.5-1.1.7-1.8.7-7.4 0-12.3-1.8-14.7-5.5-2.5-3.7-3.5-8.8-3-15.5l3-44.2c0-.7.2-1.7.7-3 .5-1.2.7-2.1.7-2.6 0-2-2.1-5.9-6.3-11.8-.7-.2-4.5-1.1-11.4-2.6-4.2-1-12.4-2.7-24.7-5.1-16.9-3.2-25.4-16.8-25.4-40.9 0-35.9 14.7-65.7 44.2-89.5 1.2 6.6 3.3 15.5 6.3 26.5 2.2.5 7 1.6 14.4 3.3 1.5.5 9 3.2 22.5 8.1-6.9-4.2-15.8-10.9-26.9-20.2-4.2-4.9-6.3-13.1-6.3-24.7 0-2.7 4.7-5.9 14-9.6 8.3-3.4 14.6-5.4 18.8-5.9 13.3-1.7 23.4-2.6 30.6-2.6 30.7 0 55.5 7.9 74.4 23.6-6.1 7.1-16.7 14.7-31.7 22.8 5.9.2 14.5-2.1 25.8-7 11.3-4.9 16.1-7.4 14.4-7.4 2 0 5.9 3.9 11.8 11.8 4.4 5.9 8 11.2 10.7 15.8 7.9 14 13.1 29.1 15.8 45.3 0 5.7.1 9.7.4 12.2v2.9l-.1.1zm-141.1 6.6c0-10.6-4.6-20.6-13.8-30-9.2-9.5-19.1-14.2-29.7-14.2-9.3 0-17.5 4-24.7 11.9-7.1 7.9-10.7 16.7-10.7 26.3 0 8.4 4.1 13.9 12.2 16.3 5.2 1.5 12.4 2.4 21.7 2.6h20.3c16.5.2 24.7-4.1 24.7-12.9m40.2 45.7v-11.4c-1.7-3.2-3.4-6.5-5.1-10-1.5-4.9-4.2-11.8-8.1-20.6l-4.1 43.1c0 3.5-.7 5.2-2.2 5.2-1 0-1.7-.2-2.2-.7-1.7-26-2.6-37.3-2.6-33.9v-12.9c-.5-.8-1.1-1.1-1.8-1.1-8.3 8.6-12.5 22.5-12.5 41.6 0 10.6 1 17.1 2.9 19.5 2-.5 4.2-1.4 6.6-2.6 1-.5 3.8-.7 8.5-.7s10.3 1.5 16.9 4.4c2.5 0 3.7-6.6 3.7-19.9m83.3-51.3c0-9.9-3.7-18.7-11-26.5-7.4-7.8-15.8-11.7-25.4-11.7-10.3 0-20 4.7-28.9 14.2-9 9.5-13.5 19.3-13.5 29.7 0 8.6 4.2 12.9 12.5 12.9h42.4c16-.2 24-6.4 24-18.5" style="fill: rgb(19, 12, 14); fill-rule: nonzero;" transform="matrix(1,0,0,1,-71.43,-194.28)" />
    <path d="M-52.703 176.592c-.486-.084-2.298-.33-4.028-.545-7.018-.876-15.807-3.768-23.124-7.61-6.187-3.246-7.292-4.45-2.992-3.258 13.726 3.805 31.992-1.64 46.58-13.884 7.953-6.674 12.396-13.07 14.398-20.72 2.89-11.042 1.786-18.535-3.828-26.004-2.158-2.87-4.536-4.726-8.818-6.878-2.944-1.48-3.404-1.82-2.87-2.12.377-.21 1.526-.26 2.802-.12 6.94.764 12.7 3.824 18.424 9.79 6.27 6.534 10.745 15.45 12.162 24.222.54 3.34.457 10.03-.16 12.93-2.764 12.99-11.01 23.936-22.266 29.547-6.198 3.09-12.223 4.492-20.108 4.677-2.91.07-5.688.056-6.173-.028zM-81.63 150.64c-3.6-.272-5.225-.636-9.373-2.1-14.745-5.2-24.403-16.283-27.726-31.816-1-4.683-1.102-14.833-.2-20.014a75.808 75.808 0 0 1 7.55-22.212c3.248-6.187 4.452-7.292 3.26-2.99-3.22 11.61.112 26.466 8.965 39.978 7.095 10.827 15.772 18.18 24.4 20.67 11.476 3.314 19.558 2.276 27.242-3.5 2.87-2.158 4.726-4.536 6.878-8.818 1.515-3.012 1.816-3.413 2.134-2.844.55.983-.283 6.53-1.4 9.327-1.685 4.22-3.645 7.09-7.512 10.996-4.167 4.21-7.63 6.68-12.843 9.164-7.076 3.37-14 4.718-21.376 4.16zm92.166-8.334c.095-.533.448-2.16.784-3.616 1.4-6.054.603-15.13-2-22.754-4.634-13.578-15.35-27.458-25.687-33.27-4.794-2.695-12.937-4.487-19.15-4.215-6.598.29-11.656 2.537-16.487 7.324-2.188 2.167-3.03 3.348-4.655 6.526-1.8 3.522-2.005 3.792-2.224 2.92-.387-1.54.43-6.37 1.58-9.354 4.234-10.98 16.786-20.598 30.736-23.555 8.395-1.778 16.814-.55 25.47 3.717 16.698 8.232 25.4 25.56 23.164 46.13-1.094 10.07-5.22 21.892-10.582 30.326-.69 1.084-1.157.998-.948-.177zM-64.17 115.86c-6.167-.852-12.233-4.3-17.6-10.005-5.99-6.368-10.09-14.46-11.696-23.08-.89-4.777-.572-12.32.7-16.58 3.797-12.727 11.453-21.948 22.57-27.187 14.716-6.935 34.473-5.44 52.404 3.966 6.186 3.245 7.293 4.45 2.992 3.258-9.684-2.685-21.143-.956-32.974 4.974-11.774 5.902-22.232 15.58-26.134 24.188-1.31 2.888-2.67 8.14-3.17 12.252-.876 7.16.803 13.44 5.128 19.193 2.157 2.868 4.536 4.725 8.81 6.873 2.553 1.284 3.36 1.843 2.997 2.073-.5.318-2.06.346-4.026.075z" style="fill: rgb(33, 29, 21); fill-rule: nonzero;" transform="matrix(1.63436,0,0,1.67005,444.927,-87.0378)" />
  </g>
</svg>

<?xml version="1.0" encoding="UTF-8" standalone="no"?>
<!DOCTYPE svg PUBLIC "-//W3C//DTD SVG 1.1//EN" "http://www.w3.org/Graphics/SVG/1.1/DTD/svg11.dtd">
<svg width="600" height="600" viewBox="0 0 600 600" version="1.1" xmlns="http://www.w3.org/2000/svg" xmlns:xlink="http://www.w3.org/1999/xlink" xml:space="preserve" xmlns:serif="http://www.serif.com/" style="fill-rule:evenodd;clip-rule:evenodd;stroke-linejoin:round;stroke-miterlimit:2;">
    <circle cx="300" cy="300" r="300" style="fill:rgb(171,139,215);"/>
    <g transform="matrix(1,0,0,1,-156.29,92.5)">
        <g transform="matrix(1,0,0,1,-71.43,-194.28)">
            <path d="M739.8,189.6C794.1,243.9 827.7,318.9 827.7,401.8C827.7,567.5 693.4,701.8 527.7,701.8C444.9,701.8 369.9,668.2 315.6,613.9" style="fill:rgb(203,194,191);fill-rule:nonzero;"/>
        </g>
        <g transform="matrix(1,0,0,1,-71.43,-194.28)">
            <path d="M765.4,497.7C765.4,513.9 759.5,525 747.7,530.9C744.3,532.6 733.5,535 715.3,537.9C703.5,539.9 697.6,544.4 697.6,551.5L697.6,581.3C697.6,582.6 698,586.4 698.7,592.7L699.8,604.5C699.8,608.2 698.9,614.2 697.2,622.6C692.5,623.6 687.1,624.7 681,625.9C679,618.5 678.1,613.5 678.1,610.8C678.1,609.6 678.4,607.7 679,605.3C679.6,602.9 679.9,601 679.9,599.8C679.9,598.1 678.4,593.3 675.3,585.4L669.6,585.4C668.8,586.6 668.6,588.2 668.8,590.2C669.8,594.4 670.2,597.9 669.9,600.9C665.7,603.8 660,607.8 652.6,612.7C650.9,612.2 650.3,612 650.8,612L650.8,585.9C650.3,584.7 649.1,584.2 647.1,584.4L642.7,584.4L638.3,619C634.9,619.2 630.7,619.2 625.8,619C624.1,610.9 621,598.9 616.6,582.9L613.6,582.9C610.9,591.5 609.4,596.2 609.2,596.9C609.2,597.9 609.5,599.8 610.1,602.6C610.7,605.4 611,607.3 611,608.3C611,609 610.7,610.9 610.3,613.8L609.2,622.7C608.7,623.2 608.1,623.4 607.4,623.4C600,623.4 595.1,621.6 592.7,617.9C590.2,614.2 589.2,609.1 589.7,602.4L592.7,558.2C592.7,557.5 592.9,556.5 593.4,555.2C593.9,554 594.1,553.1 594.1,552.6C594.1,550.6 592,546.7 587.8,540.8C587.1,540.6 583.3,539.7 576.4,538.2C572.2,537.2 564,535.5 551.7,533.1C534.8,529.9 526.3,516.3 526.3,492.2C526.3,456.3 541,426.5 570.5,402.7C571.7,409.3 573.8,418.2 576.8,429.2C579,429.7 583.8,430.8 591.2,432.5C592.7,433 600.2,435.7 613.7,440.6C606.8,436.4 597.9,429.7 586.8,420.4C582.6,415.5 580.5,407.3 580.5,395.7C580.5,393 585.2,389.8 594.5,386.1C602.8,382.7 609.1,380.7 613.3,380.2C626.6,378.5 636.7,377.6 643.9,377.6C674.6,377.6 699.4,385.5 718.3,401.2C712.2,408.3 701.6,415.9 686.6,424C692.5,424.2 701.1,421.9 712.4,417C723.7,412.1 728.5,409.6 726.8,409.6C728.8,409.6 732.7,413.5 738.6,421.4C743,427.3 746.6,432.6 749.3,437.2C757.2,451.2 762.4,466.3 765.1,482.5C765.1,488.2 765.2,492.2 765.5,494.7L765.5,497.6L765.4,497.7ZM624.3,504.3C624.3,493.7 619.7,483.7 610.5,474.3C601.3,464.8 591.4,460.1 580.8,460.1C571.5,460.1 563.3,464.1 556.1,472C549,479.9 545.4,488.7 545.4,498.3C545.4,506.7 549.5,512.2 557.6,514.6C562.8,516.1 570,517 579.3,517.2L599.6,517.2C616.1,517.4 624.3,513.1 624.3,504.3M664.5,550L664.5,538.6C662.8,535.4 661.1,532.1 659.4,528.6C657.9,523.7 655.2,516.8 651.3,508L647.2,551.1C647.2,554.6 646.5,556.3 645,556.3C644,556.3 643.3,556.1 642.8,555.6C641.1,529.6 640.2,518.3 640.2,521.7L640.2,508.8C639.7,508 639.1,507.7 638.4,507.7C630.1,516.3 625.9,530.2 625.9,549.3C625.9,559.9 626.9,566.4 628.8,568.8C630.8,568.3 633,567.4 635.4,566.2C636.4,565.7 639.2,565.5 643.9,565.5C648.6,565.5 654.2,567 660.8,569.9C663.3,569.9 664.5,563.3 664.5,550M747.8,498.7C747.8,488.8 744.1,480 736.8,472.2C729.4,464.4 721,460.5 711.4,460.5C701.1,460.5 691.4,465.2 682.5,474.7C673.5,484.2 669,494 669,504.4C669,513 673.2,517.3 681.5,517.3L723.9,517.3C739.9,517.1 747.9,510.9 747.9,498.8" style="fill:rgb(19,12,14);fill-rule:nonzero;"/>
        </g>
        <g transform="matrix(1.63436,0,0,1.67005,444.927,-87.0378)">
            <path d="M-52.703,176.592C-53.189,176.508 -55.001,176.263 -56.731,176.047C-63.748,175.171 -72.537,172.279 -79.854,168.438C-86.041,165.191 -87.146,163.987 -82.846,165.179C-69.12,168.985 -50.854,163.541 -36.265,151.296C-28.313,144.622 -23.87,138.227 -21.868,130.576C-18.979,119.534 -20.082,112.041 -25.696,104.572C-27.854,101.701 -30.232,99.846 -34.514,97.694C-37.458,96.214 -37.918,95.873 -37.383,95.574C-37.007,95.363 -35.858,95.315 -34.582,95.455C-27.641,96.218 -21.881,99.278 -16.158,105.244C-9.889,111.778 -5.413,120.693 -3.996,129.466C-3.457,132.806 -3.539,139.497 -4.156,142.395C-6.92,155.387 -15.167,166.332 -26.422,171.943C-32.62,175.033 -38.645,176.435 -46.53,176.62C-49.44,176.689 -52.218,176.676 -52.703,176.592ZM-81.631,150.64C-85.231,150.368 -86.855,150.004 -91.003,148.541C-105.748,143.34 -115.406,132.257 -118.729,116.724C-119.73,112.041 -119.832,101.891 -118.93,96.71C-117.581,88.959 -115.028,81.45 -111.379,74.498C-108.132,68.311 -106.928,67.206 -108.12,71.507C-111.34,83.117 -108.008,97.974 -99.155,111.486C-92.06,122.313 -83.383,129.665 -74.756,132.156C-63.279,135.47 -55.197,134.432 -47.513,128.656C-44.642,126.498 -42.787,124.12 -40.635,119.838C-39.12,116.826 -38.819,116.425 -38.501,116.994C-37.951,117.977 -38.783,123.524 -39.9,126.321C-41.585,130.54 -43.545,133.41 -47.412,137.316C-51.579,141.526 -55.042,143.997 -60.255,146.48C-67.331,149.85 -74.256,151.198 -81.631,150.64ZM10.536,142.306C10.631,141.773 10.984,140.146 11.32,138.69C12.721,132.636 11.923,123.561 9.321,115.936C4.686,102.358 -6.03,88.478 -16.367,82.666C-21.161,79.971 -29.304,78.179 -35.518,78.451C-42.115,78.74 -47.173,80.987 -52.004,85.774C-54.192,87.941 -55.034,89.122 -56.659,92.3C-58.459,95.822 -58.665,96.092 -58.884,95.22C-59.271,93.679 -58.455,88.851 -57.304,85.866C-53.07,74.887 -40.518,65.268 -26.568,62.311C-18.173,60.532 -9.754,61.76 -1.099,66.027C15.6,74.259 24.302,91.588 22.066,112.158C20.972,122.226 16.846,134.049 11.484,142.483C10.795,143.567 10.327,143.481 10.536,142.306ZM-64.169,115.861C-70.337,115.008 -76.403,111.559 -81.769,105.855C-87.759,99.487 -91.86,91.396 -93.466,82.775C-94.356,77.998 -94.038,70.454 -92.767,66.195C-88.969,53.468 -81.313,44.247 -70.196,39.008C-55.48,32.073 -35.723,33.568 -17.792,42.974C-11.606,46.219 -10.499,47.425 -14.8,46.232C-24.484,43.547 -35.943,45.276 -47.774,51.206C-59.548,57.108 -70.006,66.787 -73.908,75.394C-75.217,78.282 -76.577,83.533 -77.079,87.646C-77.954,94.805 -76.275,101.085 -71.95,106.839C-69.793,109.708 -67.414,111.565 -63.141,113.713C-60.587,114.997 -59.779,115.556 -60.143,115.786C-60.644,116.104 -62.204,116.132 -64.169,115.861Z" style="fill:rgb(33,29,21);fill-rule:nonzero;"/>
        </g>
    </g>
</svg>
